24x24/status/notification-disabled-90-symbolic.svg

<?xml version="1.0" encoding="UTF-8" standalone="no"?>
<svg
   xmlns:dc="http://purl.org/dc/elements/1.1/"
   xmlns:cc="http://creativecommons.org/ns#"
   xmlns:rdf="http://www.w3.org/1999/02/22-rdf-syntax-ns#"
   xmlns:svg="http://www.w3.org/2000/svg"
   xmlns="http://www.w3.org/2000/svg"
   height="24"
   width="24"
   version="1.1"
   id="svg6">
  <metadata
     id="metadata12">
    <rdf:RDF>
      <cc:Work
         rdf:about="">
        <dc:format>image/svg+xml</dc:format>
        <dc:type
           rdf:resource="http://purl.org/dc/dcmitype/StillImage" />
        <dc:title />
      </cc:Work>
    </rdf:RDF>
  </metadata>
  <defs
     id="defs10" />
  <path
     style="color:#bebebe;overflow:visible;opacity:1;isolation:auto;mix-blend-mode:normal;fill:#ffffff;marker:none"
     d="M 6.3515625,4.7363281 5.7011719,5.3867188 5.4121094,5.6777344 17.601562,17.867188 l 0.939454,-0.941407 -0.564454,-0.5625 C 17.982593,16.32478 18,16.290267 18,16.25 c -0.0019,-0.116553 -0.03132,-0.231005 -0.08594,-0.333984 -0.014,-0.028 -0.03573,-0.05017 -0.05273,-0.07617 -0.04393,-0.06716 -0.09872,-0.126562 -0.162109,-0.175782 -0.016,-0.012 -0.02206,-0.03197 -0.03906,-0.04297 C 16.000146,15.001094 16,10 16,10 15.998,8.177 14.765,6.4647656 13,6.0097656 V 6 C 13,5.4477153 12.552285,5 12,5 11.447715,5 11,5.4477153 11,6 v 0.00977 C 10.180696,6.2215541 9.4837587,6.7100393 8.9648438,7.3496094 Z M 8.0332031,9.5996094 C 8.0198271,9.732866 8.0001481,9.8650714 8,10 c 0,0 -1.564e-4,5.000094 -1.6601562,5.621094 -0.016,0.011 -0.022063,0.03097 -0.039063,0.04297 -0.063381,0.04923 -0.1181601,0.108631 -0.1621093,0.175782 -0.018,0.027 -0.038734,0.04817 -0.052734,0.07617 C 6.0313172,16.018995 6.0018673,16.133447 6,16.25 6,16.363636 6.335,17 6.75,17 h 8.683594 c 0,0 -4.933594,-4.933593 -7.4003909,-7.4003906 z M 10.066406,18 c 0.227729,0.881993 1.022677,1.49868 1.933594,1.5 0.911645,-4.31e-4 1.707636,-0.617304 1.935547,-1.5 z"
     id="path2-6" />
</svg>

<svg height="24" width="24" xmlns="http://www.w3.org/2000/svg">
    <path d="m6.352 4.736-.65.65-.29.292 12.19 12.19.939-.942-.564-.563c.006-.038.023-.073.023-.113a.738.738 0 0 0-.086-.334c-.014-.028-.036-.05-.053-.076a.725.725 0 0 0-.162-.176c-.016-.012-.022-.032-.039-.043C16 15.001 16 10 16 10c-.002-1.823-1.235-3.535-3-3.99V6a1 1 0 1 0-2 0v.01c-.82.212-1.516.7-2.035 1.34zM8.033 9.6C8.02 9.733 8 9.865 8 10c0 0 0 5-1.66 5.621-.016.011-.022.031-.04.043a.726.726 0 0 0-.161.176c-.018.027-.04.048-.053.076A.738.738 0 0 0 6 16.25c0 .114.335.75.75.75h8.684l-7.4-7.4zm2.033 8.4A2 2 0 0 0 12 19.5a2 2 0 0 0 1.936-1.5z" fill="#f4f4f7"/>
</svg>
